src/theatre.svg

<?xml version="1.0" encoding="UTF-8" standalone="no"?>
<!-- Created with Inkscape (http://www.inkscape.org/) -->

<svg
   xmlns:dc="http://purl.org/dc/elements/1.1/"
   xmlns:cc="http://creativecommons.org/ns#"
   xmlns:rdf="http://www.w3.org/1999/02/22-rdf-syntax-ns#"
   xmlns:svg="http://www.w3.org/2000/svg"
   xmlns="http://www.w3.org/2000/svg"
   xmlns:sodipodi="http://sodipodi.sourceforge.net/DTD/sodipodi-0.dtd"
   xmlns:inkscape="http://www.inkscape.org/namespaces/inkscape"
   width="580"
   height="580"
   id="svg2"
   version="1.1"
   inkscape:version="0.48.4 r9939"
   sodipodi:docname="New document 1">
  <defs
     id="defs4" />
  <sodipodi:namedview
     id="base"
     pagecolor="#ffffff"
     bordercolor="#666666"
     borderopacity="1.0"
     inkscape:pageopacity="0.0"
     inkscape:pageshadow="2"
     inkscape:zoom="0.35"
     inkscape:cx="35"
     inkscape:cy="520"
     inkscape:document-units="px"
     inkscape:current-layer="layer1"
     showgrid="false"
     inkscape:window-width="1920"
     inkscape:window-height="1124"
     inkscape:window-x="0"
     inkscape:window-y="24"
     inkscape:window-maximized="1" />
  <metadata
     id="metadata7">
    <rdf:RDF>
      <cc:Work
         rdf:about="">
        <dc:format>image/svg+xml</dc:format>
        <dc:type
           rdf:resource="http://purl.org/dc/dcmitype/StillImage" />
        <dc:title></dc:title>
      </cc:Work>
    </rdf:RDF>
  </metadata>
  <g
     inkscape:label="Layer 1"
     inkscape:groupmode="layer"
     id="layer1"
     transform="translate(0,-472.36218)">
    <g
       transform="translate(-0.1955222,472.45832)"
       id="g2998">
      <path
         inkscape:connector-curvature="0"
         id="path3327"
         d="m 265.09375,130.96875 c -9.66651,0.0211 -20.42752,7.75494 -27.28125,14.21875 -29.30327,22.49956 -50.74591,38.61784 -99.71875,51.8125 -18.60625,5.62024 -56.49391,-1.22039 -93.65625,-3.84375 -23.727041,-3.69829 -3.39165,38.67497 -0.21875,55.90625 21.098259,66.07481 45.37477,132.95229 88.25,188.34375 24.45161,27.21272 58.26924,50.93253 96.1875,50.5 31.33394,-2.6127 57.19566,-27.77299 64.53125,-57.75 0.63361,-2.02339 1.21909,-4.0723 1.75,-6.125 0.84079,-3.1428 1.65225,-6.27899 2.40625,-9.4375 -4.62443,-7.21025 -8.11659,-15.16491 -10.15625,-23.5 -0.6336,-2.02338 -1.18784,-4.0723 -1.71875,-6.125 -17.04374,-63.70793 -15.99353,-130.75362 -8.59375,-195.78125 2.15502,-10.43645 4.77127,-20.76833 7.59375,-31.03125 -1.96127,-6.52027 -3.90503,-13.05279 -5.78125,-19.59375 -3.76213,-5.52422 -8.53034,-7.60477 -13.59375,-7.59375 z"
         style="fill:none;stroke:#000000;stroke-width:20;stroke-linecap:butt;stroke-linejoin:miter;stroke-miterlimit:4;stroke-opacity:1;stroke-dasharray:none" />
      <path
         inkscape:connector-curvature="0"
         id="path3331"
         d="m 313.84375,100 c -7.75845,1.99335 -6.65216,12.10518 -9.21875,18 -11.44586,36.58947 -22.94424,73.82114 -23.40625,112.5 -3.52027,58.1076 -1.26601,118.13291 18.96875,173.09375 11.94252,24.79259 40.55421,42.6954 68.3125,35.6875 39.13884,-8.07086 70.3371,-37.51733 90.65625,-70.84375 38.09398,-59.52032 59.59666,-127.4029 79.09375,-194.8125 0.37298,-3.58477 1.83659,-9.10048 -0.34375,-11.6875 -18.78901,1.3028 -37.70899,3.78469 -56.59375,5.4375 -20.57984,1.95747 -41.6362,0.0333 -60.90625,-7.5 -34.38701,-11.39078 -64.68087,-31.89944 -92.25,-55.03125 -4.2144,-2.81934 -9.15075,-5.033101 -14.3125,-4.84375 z m 61.5,91.3125 c 16.30541,-0.52278 23.75451,22.783 12.65625,33.4375 -14.94918,16.1141 -38.41477,26.93637 -60.5,21.21875 -13.56338,-4.8754 -21.2342,-24.42699 -10.90625,-35.875 16.26698,-14.12881 39.62952,-11.73933 58.75,-18.78125 z m 65.96875,14.5 c 17.11702,-0.50918 29.59003,15.67127 31.8125,31.34375 4.47036,10.78839 12.37873,22.91644 6.78125,34.8125 -4.10797,8.9602 -15.75028,10.60979 -24.15625,7.3125 -20.10907,-4.6716 -33.51086,-24.57293 -33.90625,-44.78125 -1.82808,-11.59203 3.6182,-26.45785 16.5,-28.375 0.97733,-0.19021 1.96884,-0.29289 2.96875,-0.3125 z M 374.90625,311.375 c 21.12539,0.34468 40.43592,13.22463 52.8125,29.65625 7.86509,13.49363 4.11776,35.13799 -11.84375,40.65625 -10.96264,2.41607 -18.21597,-8.08662 -26.9375,-12.59375 -13.96503,-8.9439 -31.80484,-9.06012 -47.0625,-3.71875 -7.50701,2.35216 -17.68062,0.64343 -20.53125,-7.625 -4.87856,-11.50286 2.07189,-24.81645 12.125,-30.9375 11.84978,-9.1388 26.31589,-15.38895 41.4375,-15.4375 z"
         style="fill:#000000;fill-opacity:1;fill-rule:evenodd;stroke:#000000;stroke-width:20;stroke-linecap:butt;stroke-linejoin:miter;stroke-miterlimit:4;stroke-opacity:1;stroke-dasharray:none" />
      <path
         inkscape:connector-curvature="0"
         style="fill:none;stroke:#000000;stroke-width:20;stroke-linecap:butt;stroke-linejoin:miter;stroke-miterlimit:4;stroke-opacity:1;stroke-dasharray:none"
         d="m 285.4541,384.97852 c -17.04374,-63.70793 -15.96456,-130.77757 -8.56478,-195.8052 6.27884,-30.40762 16.27806,-59.8515 24.82708,-89.65538 10.94439,-16.070446 30.41032,-3.23905 40.8541,6.61056 29.30327,22.49956 50.76107,38.63246 99.73391,51.82712 18.60624,5.62024 56.48034,-1.23286 93.64268,-3.85622 23.72704,-3.69829 3.41363,38.67884 0.24073,55.91012 -21.09826,66.07482 -45.40258,132.93375 -88.27782,188.32521 -24.45161,27.21271 -58.25363,50.95197 -96.17189,50.51944 -31.33394,-2.61271 -57.203,-27.78273 -64.53859,-57.75974 -0.6336,-2.02339 -1.21451,-4.06321 -1.74542,-6.11591 z"
         id="path3354"
         sodipodi:nodetypes="ccccccccccc" />
      <path
         inkscape:connector-curvature="0"
         id="path3360"
         d="m 186.12241,419.27686 c -15.58748,-2.16514 -30.47705,-11.40864 -37.97298,-25.45175 8.30075,-9.22258 20.15463,0.12007 29.84602,1.0014 22.60382,2.85779 43.72857,-12.00492 54.73953,-30.87822 7.13799,-6.84119 8.06807,-25.49854 20.48231,-22.7628 8.95332,4.95513 7.26619,16.35659 5.07908,24.63977 -1.41566,11.04444 -6.78311,20.97417 -13.878,29.39427 -5.58926,7.48599 -11.13937,16.05207 -20.80631,18.5313 -12.36214,2.29995 -24.66344,8.14265 -37.48965,5.52603 z M 130.89478,298.43387 c -11.9155,-7.03343 -26.27813,-11.3583 -34.724615,-23.03371 -1.88389,-13.28322 14.873245,-21.94474 26.019795,-16.75696 13.12632,4.10687 25.53931,11.62351 33.84618,22.75681 5.5137,10.01742 -4.05662,25.83532 -15.96439,20.67562 -3.15785,-0.95437 -6.10053,-2.47227 -9.17697,-3.64176 z m 75.99729,-24.59207 c -8.33385,-10.94476 -8.41198,-29.99624 4.5392,-37.50551 8.50605,-5.61925 20.71278,-9.48138 29.75367,-2.84912 4.74569,9.77973 -3.61235,18.74314 -7.38371,27.20438 -2.27866,8.5463 -7.88213,18.14332 -17.64743,18.99456 -3.93183,0.0974 -7.42284,-2.51404 -9.26173,-5.84431 z"
         style="fill:#000000;fill-opacity:1" />
    </g>
  </g>
</svg>

<?xml version="1.0" encoding="UTF-8" standalone="no"?>
<!-- Created with Inkscape (http://www.inkscape.org/) -->

<svg
   xmlns:dc="http://purl.org/dc/elements/1.1/"
   xmlns:cc="http://creativecommons.org/ns#"
   xmlns:rdf="http://www.w3.org/1999/02/22-rdf-syntax-ns#"
   xmlns:svg="http://www.w3.org/2000/svg"
   xmlns="http://www.w3.org/2000/svg"
   xmlns:sodipodi="http://sodipodi.sourceforge.net/DTD/sodipodi-0.dtd"
   xmlns:inkscape="http://www.inkscape.org/namespaces/inkscape"
   version="1.0"
   width="580"
   height="580"
   id="svg2"
   sodipodi:version="0.32"
   inkscape:version="0.48.4 r9939"
   sodipodi:docname="theatre.svg"
   inkscape:output_extension="org.inkscape.output.svg.inkscape">
  <metadata
     id="metadata2975">
    <rdf:RDF>
      <cc:Work
         rdf:about="">
        <dc:format>image/svg+xml</dc:format>
        <dc:type
           rdf:resource="http://purl.org/dc/dcmitype/StillImage" />
        <cc:license
           rdf:resource="http://web.resource.org/cc/PublicDomain" />
        <dc:language>en</dc:language>
      </cc:Work>
    </rdf:RDF>
  </metadata>
  <sodipodi:namedview
     inkscape:window-height="947"
     inkscape:window-width="1048"
     inkscape:pageshadow="2"
     inkscape:pageopacity="0.0"
     guidetolerance="10.0"
     gridtolerance="10.0"
     objecttolerance="10.0"
     borderopacity="1.0"
     bordercolor="#666666"
     pagecolor="#ffffff"
     id="base"
     inkscape:zoom="0.46083856"
     inkscape:cx="628.59125"
     inkscape:cy="163.05342"
     inkscape:window-x="91"
     inkscape:window-y="25"
     inkscape:current-layer="svg2"
     showgrid="false"
     inkscape:window-maximized="0" />
  <defs
     id="defs4">
    <inkscape:perspective
       sodipodi:type="inkscape:persp3d"
       inkscape:vp_x="0 : 290 : 1"
       inkscape:vp_y="0 : 1000 : 0"
       inkscape:vp_z="580 : 290 : 1"
       inkscape:persp3d-origin="290 : 193.33333 : 1"
       id="perspective2441" />
    <inkscape:perspective
       id="perspective3452"
       inkscape:persp3d-origin="30 : 20 : 1"
       inkscape:vp_z="60 : 30 : 1"
       inkscape:vp_y="0 : 1000 : 0"
       inkscape:vp_x="0 : 30 : 1"
       sodipodi:type="inkscape:persp3d" />
    <symbol
       viewBox="244.5 110 489 219.9"
       id="symbol-university">
      <path
         id="path4460"
         d="M79,43l57,119c0,0,21-96,104-96s124,106,124,106l43-133l82-17L0,17L79,43z" />
      <path
         id="path4462"
         d="M94,176l-21,39"
         stroke-width="20"
         stroke="#000000"
         fill="none" />
      <path
         id="path4464"
         d="M300,19c0,10.5-22.6,19-50.5,19S199,29.5,199,19s22.6-19,50.5-19S300,8.5,300,19z" />
      <path
         id="path4466"
         d="M112,216l-16-38L64,88c0,0-9-8-4-35s16-24,16-24"
         stroke-width="20"
         stroke="#000000"
         ill="none" />
    </symbol>
    <inkscape:perspective
       id="perspective4471"
       inkscape:persp3d-origin="372.04724 : 350.78739 : 1"
       inkscape:vp_z="744.09448 : 526.18109 : 1"
       inkscape:vp_y="0 : 1000 : 0"
       inkscape:vp_x="0 : 526.18109 : 1"
       sodipodi:type="inkscape:persp3d" />
    <inkscape:perspective
       id="perspective4668"
       inkscape:persp3d-origin="6 : 4 : 1"
       inkscape:vp_z="12 : 6 : 1"
       inkscape:vp_y="0 : 1000 : 0"
       inkscape:vp_x="0 : 6 : 1"
       sodipodi:type="inkscape:persp3d" />
    <inkscape:perspective
       id="perspective2543"
       inkscape:persp3d-origin="372.04724 : 350.78739 : 1"
       inkscape:vp_z="744.09448 : 526.18109 : 1"
       inkscape:vp_y="0 : 1000 : 0"
       inkscape:vp_x="0 : 526.18109 : 1"
       sodipodi:type="inkscape:persp3d" />
  </defs>
  <g
     id="layer3"
     inkscape:label="Layout"
     style="display:none;stroke:#757575;stroke-opacity:1"
     transform="matrix(48.14969,0,0,48.14969,-536.27327,-33.306752)">
    <rect
       style="fill:none;stroke:#757575;stroke-width:0.10000000000000001;stroke-miterlimit:4;stroke-dasharray:none;stroke-opacity:1;display:inline"
       id="rect4134"
       width="10"
       height="10"
       x="1"
       y="1" />
    <rect
       style="fill:none;stroke:#757575;stroke-width:0.10000000000000001;stroke-miterlimit:4;stroke-dasharray:none;stroke-opacity:1;display:inline"
       id="rect4136"
       width="8"
       height="8"
       x="2"
       y="2" />
  </g>
  <path
     style="fill:none;fill-opacity:1;fill-rule:evenodd;stroke:#000000;;stroke-width:20;stroke-linecap:butt;stroke-linejoin:miter;stroke-miterlimit:4;stroke-dasharray:none;stroke-opacity:1"
     d="M 265.09375,130.96875 C 255.42724,130.9898 244.66623,138.72369 237.8125,145.1875 C 208.50923,167.68706 187.06659,183.80534 138.09375,197 C 119.4875,202.62024 81.59984,195.77961 44.4375,193.15625 C 20.710459,189.45796 41.04585,231.83122 44.21875,249.0625 C 65.317009,315.13731 89.59352,382.01479 132.46875,437.40625 C 156.92036,464.61897 190.73799,488.33878 228.65625,487.90625 C 259.99019,485.29355 285.85191,460.13326 293.1875,430.15625 C 293.82111,428.13286 294.40659,426.08395 294.9375,424.03125 C 295.77829,420.88845 296.58975,417.75226 297.34375,414.59375 C 292.71932,407.3835 289.22716,399.42884 287.1875,391.09375 C 286.5539,389.07037 285.99966,387.02145 285.46875,384.96875 C 268.42501,321.26082 269.47522,254.21513 276.875,189.1875 C 279.03002,178.75105 281.64627,168.41917 284.46875,158.15625 C 282.50748,151.63598 280.56372,145.10346 278.6875,138.5625 C 274.92537,133.03828 270.15716,130.95773 265.09375,130.96875 z"
     id="path3327" />
  <path
     style="opacity:1;fill:#000000;;fill-opacity:1;fill-rule:evenodd;stroke:#000000;;stroke-width:20;stroke-linecap:butt;stroke-linejoin:miter;stroke-miterlimit:4;stroke-dasharray:none;stroke-opacity:1"
     d="M 313.84375,100 C 306.0853,101.99335 307.19159,112.10518 304.625,118 C 293.17914,154.58947 281.68076,191.82114 281.21875,230.5 C 277.69848,288.6076 279.95274,348.63291 300.1875,403.59375 C 312.13002,428.38634 340.74171,446.28915 368.5,439.28125 C 407.63884,431.21039 438.8371,401.76392 459.15625,368.4375 C 497.25023,308.91718 518.75291,241.0346 538.25,173.625 C 538.62298,170.04023 540.08659,164.52452 537.90625,161.9375 C 519.11724,163.2403 500.19726,165.72219 481.3125,167.375 C 460.73266,169.33247 439.6763,167.40834 420.40625,159.875 C 386.01924,148.48422 355.72538,127.97556 328.15625,104.84375 C 323.94185,102.02441 319.0055,99.810649 313.84375,100 z M 375.34375,191.3125 C 391.64916,190.78972 399.09826,214.0955 388,224.75 C 373.05082,240.8641 349.58523,251.68637 327.5,245.96875 C 313.93662,241.09335 306.2658,221.54176 316.59375,210.09375 C 332.86073,195.96494 356.22327,198.35442 375.34375,191.3125 z M 441.3125,205.8125 C 458.42952,205.30332 470.90253,221.48377 473.125,237.15625 C 477.59536,247.94464 485.50373,260.07269 479.90625,271.96875 C 475.79828,280.92895 464.15597,282.57854 455.75,279.28125 C 435.64093,274.60965 422.23914,254.70832 421.84375,234.5 C 420.01567,222.90797 425.46195,208.04215 438.34375,206.125 C 439.32108,205.93479 440.31259,205.83211 441.3125,205.8125 z M 374.90625,311.375 C 396.03164,311.71968 415.34217,324.59963 427.71875,341.03125 C 435.58384,354.52488 431.83651,376.16924 415.875,381.6875 C 404.91236,384.10357 397.65903,373.60088 388.9375,369.09375 C 374.97247,360.14985 357.13266,360.03363 341.875,365.375 C 334.36799,367.72716 324.19438,366.01843 321.34375,357.75 C 316.46519,346.24714 323.41564,332.93355 333.46875,326.8125 C 345.31853,317.6737 359.78464,311.42355 374.90625,311.375 z"
     id="path3331" />
  <path
     sodipodi:nodetypes="ccccccccccc"
     id="path3354"
     d="M 285.4541,384.97852 C 268.41036,321.27059 269.48954,254.20095 276.88932,189.17332 C 283.16816,158.7657 293.16738,129.32182 301.7164,99.51794 C 312.66079,83.447494 332.12672,96.27889 342.5705,106.1285 C 371.87377,128.62806 393.33157,144.76096 442.30441,157.95562 C 460.91065,163.57586 498.78475,156.72276 535.94709,154.0994 C 559.67413,150.40111 539.36072,192.77824 536.18782,210.00952 C 515.08956,276.08434 490.78524,342.94327 447.91,398.33473 C 423.45839,425.54744 389.65637,449.2867 351.73811,448.85417 C 320.40417,446.24146 294.53511,421.07144 287.19952,391.09443 C 286.56592,389.07104 285.98501,387.03122 285.4541,384.97852 z"
     style="opacity:1;fill:none;fill-opacity:1;fill-rule:evenodd;stroke:#000000;;stroke-width:20;stroke-linecap:butt;stroke-linejoin:miter;stroke-miterlimit:4;stroke-dasharray:none;stroke-opacity:1" />
  <path
     style="fill:#000000;;fill-opacity:1"
     d="M 186.12241,419.27686 C 170.53493,417.11172 155.64536,407.86822 148.14943,393.82511 C 156.45018,384.60253 168.30406,393.94518 177.99545,394.82651 C 200.59927,397.6843 221.72402,382.82159 232.73498,363.94829 C 239.87297,357.1071 240.80305,338.44975 253.21729,341.18549 C 262.17061,346.14062 260.48348,357.54208 258.29637,365.82526 C 256.88071,376.8697 251.51326,386.79943 244.41837,395.21953 C 238.82911,402.70552 233.279,411.2716 223.61206,413.75083 C 211.24992,416.05078 198.94862,421.89348 186.12241,419.27686 z M 130.89478,298.43387 C 118.97928,291.40044 104.61665,287.07557 96.170165,275.40016 C 94.286275,262.11694 111.04341,253.45542 122.18996,258.6432 C 135.31628,262.75007 147.72927,270.26671 156.03614,281.40001 C 161.54984,291.41743 151.97952,307.23533 140.07175,302.07563 C 136.9139,301.12126 133.97122,299.60336 130.89478,298.43387 z M 206.89207,273.8418 C 198.55822,262.89704 198.48009,243.84556 211.43127,236.33629 C 219.93732,230.71704 232.14405,226.85491 241.18494,233.48717 C 245.93063,243.2669 237.57259,252.23031 233.80123,260.69155 C 231.52257,269.23785 225.9191,278.83487 216.1538,279.68611 C 212.22197,279.78353 208.73096,277.17207 206.89207,273.8418 z"
     id="path3360" />
</svg>
